dist/svgs/crypto-icons/icons/qrk.svg

<?xml version="1.0" encoding="UTF-8" standalone="yes"?>
<svg xmlns="http://www.w3.org/2000/svg" xmlns:xlink="http://www.w3.org/1999/xlink" width="512px" height="512px" viewBox="0 0 384 384" version="1.1">
  <g id="surface1">
    <path style=" stroke:none;fill-rule:nonzero;fill:rgb(0%,0%,0%);fill-opacity:1;" d="M 191.84375 -0.0234375 C 85.878906 -0.0234375 0 85.84375 0 191.773438 C 0 297.703125 85.882812 383.621094 191.84375 383.621094 C 297.753906 383.621094 383.648438 297.703125 383.648438 191.773438 C 383.648438 85.84375 297.753906 -0.0234375 191.84375 -0.0234375 Z M 191.84375 357.023438 C 100.574219 357.023438 26.605469 283.015625 26.605469 191.773438 C 26.605469 100.535156 100.578125 26.574219 191.84375 26.574219 C 283.066406 26.574219 357.054688 100.535156 357.054688 191.773438 C 357.054688 283.015625 283.066406 357.023438 191.84375 357.023438 Z M 191.84375 357.023438 "/>
    <path style=" stroke:none;fill-rule:nonzero;fill:rgb(0%,0%,0%);fill-opacity:1;" d="M 310.589844 123.222656 C 296.847656 99.398438 266.382812 91.238281 242.542969 104.992188 C 237.136719 108.117188 232.582031 112.136719 228.855469 116.714844 C 228.851562 116.707031 228.839844 116.707031 228.832031 116.703125 C 220.667969 128.378906 207.144531 136.039062 191.828125 136.039062 C 176.496094 136.039062 162.976562 128.378906 154.816406 116.703125 C 154.804688 116.707031 154.78125 116.714844 154.773438 116.722656 C 151.050781 112.148438 146.496094 108.128906 141.085938 105.007812 C 117.265625 91.257812 86.800781 99.410156 73.046875 123.238281 C 59.292969 147.050781 67.460938 177.515625 91.285156 191.273438 C 96.402344 194.21875 101.839844 196.085938 107.34375 197.074219 C 121.882812 198.050781 135.675781 206.027344 143.480469 219.601562 C 151.128906 232.902344 151.230469 248.464844 145.15625 261.367188 C 145.203125 261.402344 145.25 261.453125 145.304688 261.480469 C 143.214844 266.972656 142.015625 272.914062 142.015625 279.136719 C 142.015625 306.644531 164.316406 328.949219 191.828125 328.949219 C 219.328125 328.949219 241.625 306.644531 241.625 279.136719 C 241.625 273.230469 240.523438 267.585938 238.625 262.320312 C 232.207031 249.246094 232.214844 233.308594 240.070312 219.765625 C 247.746094 206.515625 261.136719 198.660156 275.320312 197.445312 C 275.328125 197.382812 275.34375 197.320312 275.351562 197.257812 C 281.175781 196.324219 286.9375 194.386719 292.359375 191.261719 C 316.175781 177.5 324.339844 147.039062 310.589844 123.222656 Z M 191.832031 228.832031 C 171.371094 228.832031 154.792969 212.246094 154.792969 191.792969 C 154.792969 171.34375 171.371094 154.765625 191.832031 154.765625 C 212.273438 154.765625 228.867188 171.34375 228.867188 191.792969 C 228.867188 212.246094 212.273438 228.832031 191.832031 228.832031 Z M 191.832031 228.832031 "/>
  </g>
</svg>

<svg xmlns="http://www.w3.org/2000/svg" viewBox="0 0 384 384"><path d="M191.844-.023C85.879-.023 0 85.844 0 191.773c0 105.93 85.883 191.848 191.844 191.848 105.91 0 191.804-85.918 191.804-191.848S297.754-.023 191.844-.023zm0 357.046c-91.27 0-165.239-74.007-165.239-165.25 0-91.238 73.973-165.199 165.239-165.199 91.222 0 165.21 73.961 165.21 165.2 0 91.242-73.988 165.25-165.21 165.25zm0 0"/><path d="M310.59 123.223c-13.742-23.825-44.207-31.985-68.047-18.23-5.406 3.124-9.961 7.144-13.688 11.722-.003-.008-.015-.008-.023-.012-8.164 11.676-21.687 19.336-37.004 19.336-15.332 0-28.851-7.66-37.012-19.336a.144.144 0 00-.043.02c-3.722-4.575-8.277-8.594-13.687-11.715-23.82-13.75-54.285-5.598-68.04 18.23-13.753 23.813-5.585 54.278 18.24 68.035 5.116 2.946 10.554 4.813 16.058 5.801 14.539.977 28.332 8.953 36.136 22.528 7.649 13.3 7.75 28.863 1.676 41.765.047.035.094.086.149.113-2.09 5.493-3.29 11.434-3.29 17.657 0 27.508 22.301 49.812 49.813 49.812 27.5 0 49.797-22.304 49.797-49.812 0-5.907-1.102-11.551-3-16.817-6.418-13.074-6.41-29.011 1.445-42.554 7.676-13.25 21.067-21.106 35.25-22.32.008-.063.024-.126.032-.188 5.824-.934 11.586-2.871 17.007-5.996 23.817-13.762 31.98-44.223 18.23-68.04zM191.832 228.832c-20.46 0-37.039-16.586-37.039-37.039 0-20.45 16.578-37.027 37.039-37.027 20.441 0 37.035 16.578 37.035 37.027 0 20.453-16.594 37.039-37.035 37.039zm0 0"/></svg>
